X:1
T:Title
%%score { 1 | 2 }
L:1/8
M:6/8
K:Eb
V:1 treble nm="Grand Piano"
V:2 bass 
V:1
 z3 z2[Q:1/4=87] [GB]/[GB]/ | [GB][EG][FA] [GB][Ge]>d | cde B2 A | GBG [A,DF][G,E]>[A,DF] | %4
 [G,E]3- [G,E]2 [GB]/[GB]/ | [GB][EG][FA] [GB][Ge]>d | cde B2 A | GB>G [DF]E>F | E3- E2 [DF] | %9
 [DF][DF]>[EG] [DA][Dd]>[Dc] | cB>G B2 B | =ABc edc | [DB]3- [DB]2 [DB]/[DB]/ | %13
 [EB][EG][FA] [GB][Ge]>[EBd] | [EAc][DBd][CAe] [B,GB]2 [DFA]/[DFA]/ | %15
[M:13/16] [EG][B,GB]3/2[B,EG][A,DF][G,E]>[A,B,F] |[M:5/8] [G,B,E]-[G,B,E]- [G,B,E]3 |] %17
V:2
 z3 z2 [E,B,] | [E,B,][E,B,][E,B,] [E,B,][E,B,]>[G,B,E] | [A,E][A,B,E][A,CE] [G,E]2 [F,B,D] | %3
 [E,B,E][E,G,E][E,B,E] B,,B,,>B,, | E,3- E,2 [E,E] | [E,E][E,B,][E,B,] [E,B,][E,B,]>[G,B,E] | %6
 [A,E][A,B,E][A,CE] [G,E]2 [F,B,D] | [E,B,E][E,G,E]>[E,B,E] [B,,A,][B,,G,]>[B,,A,B,] | %8
 [E,G,B,]3- [E,G,B,]2 [B,,B,] | [B,,B,][B,,A,]>[B,,G,] [B,,F,][B,,A,]>[B,,A,] | %10
 [E,A,E][E,G,E]>[E,B,E] [E,G,E]2 [E,G,E] | [F,CE][F,B,D][F,=A,E] [F,A,G][F,A,F][F,A,E] | %12
 [B,,B,]3- [B,,B,]2 [B,,A,]/[B,,A,]/ | [E,G,][E,B,][E,B,] [E,B,][E,B,]>G,, | %14
 A,,A,,A,, E,2 B,,/B,,/ |[M:13/16] E,E,3/2E,B,,B,,>B,, |[M:5/8] E,-E,- E,3 |] %17

